X: 39823
T: Thief Lane
R: jig
M: 6/8
K: Eminor
|:BEF GFE|BEF GFE|c2c BAG|FAG FED|
BEF GFE|BEF GFE|c2c BAG|1 FED E2B:|2 FED E2d||
|:efg fed|BdB G2B|dfd B2d|faf d2d|
efg fed|BdB G2B|c2c BAG|1 FED E2d:|2 FED E2B||

